X: 12
T: J'ay pris amours II
N: Derived from Jap3012-Jay_pris_amours_II.krn
C: Jean Japart
%%abc-version 2.0
%%abcx-abcm2ps-target-version 5.9.1 (29 Sep 2008)
%%abc-creator hum2abc beta
%%abcx-conversion-date 2019/02/16 20:40:05
%%abc-edited-by Jesse Rodin
%%abc-edited-by Chris Gage 09-18-2013
%%abcx-initial-encoding-date 2013/10/23/
%%humdrum-veritas 1810783788
%%humdrum-veritas-data 4118902837
%%linebreak <none>
%%barnumbers 0
L: 1/4
M: 2/1
Q: 1/2=120
%%staves [1 2 3 4]
V: 1 clef=treble
V: 2 clef=treble-8
V: 3 clef=treble-8
V: 4 clef=bass
K: C
[V:1] z8 | 
[V:2] d8 | 
[V:3] A8 | 
[V:4] D,8- | 
[V:1] z8 | 
[V:2] f4f4 | 
[V:3] A4B4 | 
[V:4] D,8 | 
[V:1] A8 | 
[V:2] e4d2f2- | 
[V:3] c4A4 | 
[V:4] C,4D,4- | 
[V:1] A4A4 | 
[V:2] fedcd4 | 
[V:3] z4A4 | 
[V:4] D,4F,4 | 
[V:1] G4E4- | 
[V:2] e4z4 | 
[V:3] B2c2B2c2- | 
[V:4] E,4G,2A,2- | 
[V:1] E4A4 | 
[V:2] c4c4 | 
[V:3] c2B2A2GF | 
[V:4] A,2E,2F,4 | 
[V:1] G2E2F2ED | 
[V:2] c4A4 | 
[V:3] E4z4 | 
[V:4] C,4D,4 | 
[V:1] C4D4 | 
[V:2] G2A3GF2 | 
[V:3] z4A4 | 
[V:4] E,2F,6 | 
[V:1] E3D/C/B,3A, | 
[V:2] E4z4 | 
[V:3] G3EF4 | 
[V:4] C,4D,4 | 
[V:1] C3DE2F2 | 
[V:2] E4C2D2 | 
[V:3] G2c3BA2- | 
[V:4] C,4z4 | 
[V:1] E2A3GF2- | 
[V:2] E2F3GAB | 
[V:3] AGFEF4 | 
[V:4] A,,4D,4 | 
[V:1] FEE4D2- | 
[V:2] c2BAG4 | 
[V:3] G3FD4 | 
[V:4] C,4B,,4 | 
[V:1] D2^C2D4 | 
[V:2] A6B2 | 
[V:3] E4D4 | 
[V:4] A,,4z4 | 
[V:1] z4G4 | 
[V:2] cde4dc | 
[V:3] G6A2 | 
[V:4] C,8 | 
[V:1] G8 | 
[V:2] d4c2c2- | 
[V:3] B4G4 | 
[V:4] B,,4C,4- | 
[V:1] G6FE | 
[V:2] c2BAG4 | 
[V:3] z8 | 
[V:4] C,4E,4 | 
[V:1] F4E4 | 
[V:2] F4G3E | 
[V:3] A4c4 | 
[V:4] D,4C,4 | 
[V:1] z4A4 | 
[V:2] F2G2A4 | 
[V:3] B2c2d4 | 
[V:4] D,2E,2F,4 | 
[V:1] G3Ac2B2- | 
[V:2] B2c4d2 | 
[V:3] e2e4dc | 
[V:4] E,4E,4 | 
[V:1] BA^G^FG4 | 
[V:2] e4d3e | 
[V:3] B3AB4 | 
[V:4] E,4z4 | 
[V:1] A8 | 
[V:2] f2e3dc2 | 
[V:3] A4z4 | 
[V:4] A,,8 | 
[V:1] z8 | 
[V:2] B4A4 | 
[V:3] d4c4 | 
[V:4] G,,4A,,4- | 
[V:1] A4A4 | 
[V:2] z4A4 | 
[V:3] A4c2c2- | 
[V:4] A,,4A,,2B,,2 | 
[V:1] A6GF | 
[V:2] A4A4 | 
[V:3] cBAGF4 | 
[V:4] C,2D,6 | 
[V:1] E6F2 | 
[V:2] c6BA | 
[V:3] G2A4GF | 
[V:4] C,8 | 
[V:1] G4A4 | 
[V:2] G2FED4 | 
[V:3] E4F4 | 
[V:4] z8 | 
[V:1] G4G4- | 
[V:2] z2G4c2 | 
[V:3] G4C4 | 
[V:4] C,8 | 
[V:1] G2FEF4 | 
[V:2] B2c2d4 | 
[V:3] z2G2A2B2 | 
[V:4] E,4D,4 | 
[V:1] E4D4- | 
[V:2] G4z2A2 | 
[V:3] c4F3G | 
[V:4] C,4D,4- | 
[V:1] D2F4ED | 
[V:2] F2D2F3G | 
[V:3] _B2A4GF | 
[V:4] D,4A,,4- | 
[V:1] C8 | 
[V:2] A4G4 | 
[V:3] E4E4 | 
[V:4] A,,4C,4 | 
[V:1] z4A,4 | 
[V:2] z4F4 | 
[V:3] F4F4 | 
[V:4] D,8 | 
[V:1] C4B,2C2- | 
[V:2] G4G4 | 
[V:3] E8 | 
[V:4] C,4E,4 | 
[V:1] CB,D3CF2- | 
[V:2] A8 | 
[V:3] z4A4- | 
[V:4] F,8 | 
[V:1] FEDCB,4 | 
[V:2] z4d4 | 
[V:3] A4^G4 | 
[V:4] z8 | 
[V:1] A,8 | 
[V:2] c6d2 | 
[V:3] A4c4 | 
[V:4] F,8 | 
[V:1] z4A,4 | 
[V:2] e4c2f2- | 
[V:3] c2c4B2 | 
[V:4] E,4F,4- | 
[V:1] C6D2 | 
[V:2] fef2e4- | 
[V:3] A4G4 | 
[V:4] F,4C,4- | 
[V:1] E4F4 | 
[V:2] e2dcB3A | 
[V:3] z4F4 | 
[V:4] C,4D,4 | 
[V:1] E6F2 | 
[V:2] c6BA | 
[V:3] G2A2G2c2- | 
[V:4] C,4E,4- | 
[V:1] G4A4- | 
[V:2] G4D4 | 
[V:3] c2B2A4 | 
[V:4] E,4F,4 | 
[V:1] A2G2F4 | 
[V:2] z2D2F3G | 
[V:3] z4d4- | 
[V:4] D,8 | 
[V:1] E8 | 
[V:2] A3BA4 | 
[V:3] d2cBc2Bc | 
[V:4] z8 | 
[V:1] D8 | 
[V:2] F4D4 | 
[V:3] d2A2BAGF | 
[V:4] D,8 | 
[V:1] z8 | 
[V:2] z4d4 | 
[V:3] E4z4 | 
[V:4] C,4B,,2D,2 | 
[V:1] z8 | 
[V:2] c2d2A3B | 
[V:3] z8 | 
[V:4] E,2D,4F,2 | 
[V:1] z8 | 
[V:2] cde3cf2- | 
[V:3] G4c4 | 
[V:4] E,2G,2A,4 | 
[V:1] z4A4 | 
[V:2] f2e4d2 | 
[V:3] B4A4 | 
[V:4] G,4F,4 | 
[V:1] G4F4 | 
[V:2] e2dcdcBA | 
[V:3] B2G2D4 | 
[V:4] E,4z4 | 
[V:1] E4z4 | 
[V:2] G2c4B2 | 
[V:3] z4F4 | 
[V:4] C,4D,4 | 
[V:1] C4D4 | 
[V:2] c4z4 | 
[V:3] G4A4 | 
[V:4] C,2E,2F,4 | 
[V:1] E4F4 | 
[V:2] z4F4 | 
[V:3] G2c4B2 | 
[V:4] E,4D,4 | 
[V:1] E4c4- | 
[V:2] G4E4 | 
[V:3] c2d2e4- | 
[V:4] C,4z4 | 
[V:1] c2B2A4- | 
[V:2] A4e4- | 
[V:3] e2d2c4 | 
[V:4] A,,8 | 
[V:1] A2^G2G2^F2 | 
[V:2] e8 | 
[V:3] B8 | 
[V:4] E,8 | 
[V:1] A8- | 
[V:2] c8 | 
[V:3] A8- | 
[V:4] F,4F,4 | 
[V:1] A8 |]  
[V:2] d8 |]  
[V:3] A8 |]  
[V:4] D,8 |]  



